src/assets/notification_icon.svg

<svg xmlns="http://www.w3.org/2000/svg" version="1.1" viewBox="0 0 102 102"><path d="M27.488 9.924c-2.565 1.065-10.486 8.948-10.494 10.444-.004.622-.657 2.38-1.453 3.906-2.086 3.998-3.033 13.938-1.586 16.642 1.96 3.661 5.374 2.374 6.409-2.416.476-2.2 1.217-4.9 1.648-6 2.397-6.116 4.19-9.5 5.035-9.5.524 0 .953-.61.953-1.355s1.384-2.502 3.076-3.903c2.359-1.954 3-3.212 2.75-5.395-.352-3.071-2.655-3.951-6.338-2.423m41.179-.257c-1.708 1.707-.494 5.956 2.342 8.196C72.654 19.162 74 20.849 74 21.613c0 .763.429 1.387.953 1.387.845 0 2.638 3.384 5.035 9.5.431 1.1 1.172 3.8 1.648 6 1.035 4.79 4.449 6.077 6.409 2.416 1.447-2.704.5-12.644-1.586-16.642-.796-1.526-1.449-3.284-1.453-3.906-.009-1.635-8.046-9.433-10.801-10.48-2.782-1.058-4.628-1.132-5.538-.221M28 10.708c-2.784 1.021-9.056 8.256-10.912 12.587C13.296 32.141 13.246 42 16.992 42c1.373 0 2.01-1.053 2.542-4.202 1.026-6.074 4.047-12.574 8.256-17.765 2.022-2.493 4.021-4.683 4.443-4.866.422-.184.767-1.421.767-2.75 0-2.429-1.572-2.966-5-1.709m41 1.584c0 1.398.345 2.691.767 2.875.422.183 2.421 2.373 4.443 4.866 4.209 5.191 7.23 11.691 8.256 17.765.885 5.239 3.988 5.966 5.039 1.18 2.198-10.009-6.836-26.894-15.295-28.586-2.94-.588-3.21-.428-3.21 1.9m-20.291-.668c-.39.39-.71 1.422-.711 2.293-.002.982-2.446 2.671-6.442 4.45-7.376 3.284-9.028 5.738-10.732 15.931-3.317 19.851-3.567 20.5-10.532 27.295-7.324 7.147-7.959 10.098-2.969 13.808C20.048 77.427 21.226 77.5 51 77.5s30.952-.073 33.677-2.099c4.99-3.71 4.355-6.661-2.969-13.808-6.965-6.795-7.215-7.444-10.532-27.295-1.701-10.178-3.36-12.647-10.696-15.921-4.442-1.982-6.492-3.474-6.692-4.868-.286-1.997-3.7-3.264-5.079-1.885m.979 1.022c-.379.378-.688 1.402-.688 2.276 0 1.018-2.182 2.434-6.084 3.947-7.079 2.745-9.339 5.676-10.874 14.106-3.6 19.776-4.094 21.506-7.274 25.506-1.756 2.211-3.574 4.178-4.038 4.371-2.732 1.141-5.815 5.592-5.537 7.993C15.801 76.079 18.467 76.5 51 76.5s35.199-.421 35.807-5.655c.278-2.401-2.805-6.852-5.537-7.993-.464-.193-2.282-2.16-4.038-4.371-3.18-4-3.674-5.73-7.274-25.506-1.533-8.416-3.798-11.362-10.834-14.09-4.191-1.625-6.134-2.94-6.335-4.286-.307-2.061-1.956-3.099-3.101-1.953M43 81.923C43 84.904 48.678 90 52 90s9-5.096 9-8.077C61 80.168 60.213 80 52 80s-9 .168-9 1.923m1 .441c0 .75 1.186 2.55 2.636 4 3.417 3.417 7.311 3.417 10.728 0C61.855 81.873 60.982 81 52 81c-6.089 0-8 .326-8 1.364" fill="#fcec3c" fill-rule="evenodd"/><path d="M28 10.708c-2.784 1.021-9.056 8.256-10.912 12.587C13.296 32.141 13.246 42 16.992 42c1.373 0 2.01-1.053 2.542-4.202 1.026-6.074 4.047-12.574 8.256-17.765 2.022-2.493 4.021-4.683 4.443-4.866.422-.184.767-1.421.767-2.75 0-2.429-1.572-2.966-5-1.709m41 1.584c0 1.398.345 2.691.767 2.875.422.183 2.421 2.373 4.443 4.866 4.209 5.191 7.23 11.691 8.256 17.765.885 5.239 3.988 5.966 5.039 1.18 2.198-10.009-6.836-26.894-15.295-28.586-2.94-.588-3.21-.428-3.21 1.9m-19.312.354c-.379.378-.688 1.402-.688 2.276 0 1.018-2.182 2.434-6.084 3.947-7.079 2.745-9.339 5.676-10.874 14.106-3.6 19.776-4.094 21.506-7.274 25.506-1.756 2.211-3.574 4.178-4.038 4.371-2.732 1.141-5.815 5.592-5.537 7.993C15.801 76.079 18.467 76.5 51 76.5s35.199-.421 35.807-5.655c.278-2.401-2.805-6.852-5.537-7.993-.464-.193-2.282-2.16-4.038-4.371-3.18-4-3.674-5.73-7.274-25.506-1.533-8.416-3.798-11.362-10.834-14.09-4.191-1.625-6.134-2.94-6.335-4.286-.307-2.061-1.956-3.099-3.101-1.953M44 82.364c0 .75 1.186 2.55 2.636 4 3.417 3.417 7.311 3.417 10.728 0C61.855 81.873 60.982 81 52 81c-6.089 0-8 .326-8 1.364" fill="#fcec3c" fill-rule="evenodd"/></svg>

<svg xmlns="http://www.w3.org/2000/svg" width="102" height="102" viewBox="0 0 102 102" version="1.1"><path d="M 27.488 9.924 C 24.923 10.989, 17.002 18.872, 16.994 20.368 C 16.990 20.990, 16.337 22.748, 15.541 24.274 C 13.455 28.272, 12.508 38.212, 13.955 40.916 C 15.915 44.577, 19.329 43.290, 20.364 38.500 C 20.840 36.300, 21.581 33.600, 22.012 32.500 C 24.409 26.384, 26.202 23, 27.047 23 C 27.571 23, 28 22.390, 28 21.645 C 28 20.900, 29.384 19.143, 31.076 17.742 C 33.435 15.788, 34.076 14.530, 33.826 12.347 C 33.474 9.276, 31.171 8.396, 27.488 9.924 M 68.667 9.667 C 66.959 11.374, 68.173 15.623, 71.009 17.863 C 72.654 19.162, 74 20.849, 74 21.613 C 74 22.376, 74.429 23, 74.953 23 C 75.798 23, 77.591 26.384, 79.988 32.500 C 80.419 33.600, 81.160 36.300, 81.636 38.500 C 82.671 43.290, 86.085 44.577, 88.045 40.916 C 89.492 38.212, 88.545 28.272, 86.459 24.274 C 85.663 22.748, 85.010 20.990, 85.006 20.368 C 84.997 18.733, 76.960 10.935, 74.205 9.888 C 71.423 8.830, 69.577 8.756, 68.667 9.667 M 28 10.708 C 25.216 11.729, 18.944 18.964, 17.088 23.295 C 13.296 32.141, 13.246 42, 16.992 42 C 18.365 42, 19.002 40.947, 19.534 37.798 C 20.560 31.724, 23.581 25.224, 27.790 20.033 C 29.812 17.540, 31.811 15.350, 32.233 15.167 C 32.655 14.983, 33 13.746, 33 12.417 C 33 9.988, 31.428 9.451, 28 10.708 M 69 12.292 C 69 13.690, 69.345 14.983, 69.767 15.167 C 70.189 15.350, 72.188 17.540, 74.210 20.033 C 78.419 25.224, 81.440 31.724, 82.466 37.798 C 83.351 43.037, 86.454 43.764, 87.505 38.978 C 89.703 28.969, 80.669 12.084, 72.210 10.392 C 69.270 9.804, 69 9.964, 69 12.292 M 48.709 11.624 C 48.319 12.014, 47.999 13.046, 47.998 13.917 C 47.996 14.899, 45.552 16.588, 41.556 18.367 C 34.180 21.651, 32.528 24.105, 30.824 34.298 C 27.507 54.149, 27.257 54.798, 20.292 61.593 C 12.968 68.740, 12.333 71.691, 17.323 75.401 C 20.048 77.427, 21.226 77.500, 51 77.500 C 80.774 77.500, 81.952 77.427, 84.677 75.401 C 89.667 71.691, 89.032 68.740, 81.708 61.593 C 74.743 54.798, 74.493 54.149, 71.176 34.298 C 69.475 24.120, 67.816 21.651, 60.480 18.377 C 56.038 16.395, 53.988 14.903, 53.788 13.509 C 53.502 11.512, 50.088 10.245, 48.709 11.624 M 49.688 12.646 C 49.309 13.024, 49 14.048, 49 14.922 C 49 15.940, 46.818 17.356, 42.916 18.869 C 35.837 21.614, 33.577 24.545, 32.042 32.975 C 28.442 52.751, 27.948 54.481, 24.768 58.481 C 23.012 60.692, 21.194 62.659, 20.730 62.852 C 17.998 63.993, 14.915 68.444, 15.193 70.845 C 15.801 76.079, 18.467 76.500, 51 76.500 C 83.533 76.500, 86.199 76.079, 86.807 70.845 C 87.085 68.444, 84.002 63.993, 81.270 62.852 C 80.806 62.659, 78.988 60.692, 77.232 58.481 C 74.052 54.481, 73.558 52.751, 69.958 32.975 C 68.425 24.559, 66.160 21.613, 59.124 18.885 C 54.933 17.260, 52.990 15.945, 52.789 14.599 C 52.482 12.538, 50.833 11.500, 49.688 12.646 M 43 81.923 C 43 84.904, 48.678 90, 52 90 C 55.322 90, 61 84.904, 61 81.923 C 61 80.168, 60.213 80, 52 80 C 43.787 80, 43 80.168, 43 81.923 M 44 82.364 C 44 83.114, 45.186 84.914, 46.636 86.364 C 50.053 89.781, 53.947 89.781, 57.364 86.364 C 61.855 81.873, 60.982 81, 52 81 C 45.911 81, 44 81.326, 44 82.364" stroke="none" fill="#fcec3c" fill-rule="evenodd"/><path d="M 28 10.708 C 25.216 11.729, 18.944 18.964, 17.088 23.295 C 13.296 32.141, 13.246 42, 16.992 42 C 18.365 42, 19.002 40.947, 19.534 37.798 C 20.560 31.724, 23.581 25.224, 27.790 20.033 C 29.812 17.540, 31.811 15.350, 32.233 15.167 C 32.655 14.983, 33 13.746, 33 12.417 C 33 9.988, 31.428 9.451, 28 10.708 M 69 12.292 C 69 13.690, 69.345 14.983, 69.767 15.167 C 70.189 15.350, 72.188 17.540, 74.210 20.033 C 78.419 25.224, 81.440 31.724, 82.466 37.798 C 83.351 43.037, 86.454 43.764, 87.505 38.978 C 89.703 28.969, 80.669 12.084, 72.210 10.392 C 69.270 9.804, 69 9.964, 69 12.292 M 49.688 12.646 C 49.309 13.024, 49 14.048, 49 14.922 C 49 15.940, 46.818 17.356, 42.916 18.869 C 35.837 21.614, 33.577 24.545, 32.042 32.975 C 28.442 52.751, 27.948 54.481, 24.768 58.481 C 23.012 60.692, 21.194 62.659, 20.730 62.852 C 17.998 63.993, 14.915 68.444, 15.193 70.845 C 15.801 76.079, 18.467 76.500, 51 76.500 C 83.533 76.500, 86.199 76.079, 86.807 70.845 C 87.085 68.444, 84.002 63.993, 81.270 62.852 C 80.806 62.659, 78.988 60.692, 77.232 58.481 C 74.052 54.481, 73.558 52.751, 69.958 32.975 C 68.425 24.559, 66.160 21.613, 59.124 18.885 C 54.933 17.260, 52.990 15.945, 52.789 14.599 C 52.482 12.538, 50.833 11.500, 49.688 12.646 M 44 82.364 C 44 83.114, 45.186 84.914, 46.636 86.364 C 50.053 89.781, 53.947 89.781, 57.364 86.364 C 61.855 81.873, 60.982 81, 52 81 C 45.911 81, 44 81.326, 44 82.364" stroke="none" fill="#fcec3c" fill-rule="evenodd"/></svg>
